X:18
T:Bonjoer
%%staffsep 20
C:Traditioneel
O:Wilder (Vlaanderen)
Z:Bert Van Vreckem <http://flanders.blackmill.net/music/>
M:6/8
K:G
P:A
Q:3/8=112
D E2F|G2G G2G|G2G A2G|G3 (F3|F2) z d3 |(F6|F2) z d3|(G6|G2) D E2 F|
w: *** **** **** *** Bon-jour_ Bon-soir_ ***
G2G G2G|G2G A2G|G3 (F3|F2) z d3|(F6|F2) z d3|(G6|G2) z B2 c ||
w: **** **** *** Bon-jour_ Bon-soir_ **
P:B
Q:3/8=152
%%staffsep 45
|: d3 B2 c|d3 c2 B|c3 A3|A2 z A2 B|c3 A2 B|c3 B2 A |
B3 G3|G2 z d3|(G6|G2) z D3 |[1 (G6|G2) z B2 c :|[2 (G6|G) z |]

